icons/icon-monitor.svg

<svg viewBox="0 0 40 40" fill="none" xmlns="http://www.w3.org/2000/svg">
<g id="icon">
<path id="Vector 179" d="M31.4203 32.2223H14.2885M8.24203 32.2223H14.2885M14.2885 32.2223V26.1866H5.55469V7.77783H34.4436V26.1866H29.4048" stroke="white" stroke-opacity="0.3" stroke-width="2.5"/>
<path id="Vector 180" d="M17.7773 25.5557H24.444V30.8334" stroke="currentColor" stroke-opacity="0.3" stroke-width="2.5"/>
<path id="Vector 181" d="M11.3849 10.7268L8.24559 13.2855" stroke="currentColor" stroke-opacity="0.3"/>
<path id="Vector 182" d="M14.7957 10.6339L8.03242 16.2161" stroke="currentColor" stroke-opacity="0.3"/>
</g>
</svg>

<svg xmlns="http://www.w3.org/2000/svg" fill="none" viewBox="0 0 40 40"><g stroke-opacity=".3"><path stroke="#fff" stroke-width="2.5" d="M31.42 32.222H14.29m-6.047 0h6.046m0 0v-6.035H5.556V7.777h28.889v18.41h-5.04"/><path stroke="currentColor" stroke-width="2.5" d="M17.777 25.556h6.667v5.277"/><path stroke="currentColor" d="m11.385 10.727-3.14 2.559M14.796 10.634l-6.764 5.582"/></g></svg>
